Icons/dp_ws_popcorntime.svg

<svg viewBox="0 0 48 48" xmlns:xlink="http://www.w3.org/1999/xlink">
 <defs>
  <linearGradient id="0">
   <stop stop-opacity="0"/>
   <stop offset="1"/>
  </linearGradient>
  <linearGradient xlink:href="#0" id="1" gradientUnits="userSpaceOnUse" gradientTransform="translate(4e-7,-48)" y1="47" x2="0" y2="1"/>
  <clipPath id="2">
   <g transform="translate(0,-1004.3622)">
    <rect rx="4" y="1005.36" x="1" height="46" width="46" fill="#1890d0"/>
   </g>
  </clipPath>
  <clipPath id="3">
   <g transform="translate(0,-1004.3622)">
    <rect rx="4" y="1005.36" x="1" height="46" width="46" fill="#1890d0"/>
   </g>
  </clipPath>
 </defs>
 <g>
  <g transform="translate(0,-1004.3622)">
   <path d="m 5,1006.3622 c -2.216,0 -4,1.784 -4,4 l 0,37.25 c 0,2.216 1.784,4 4,4 l 38,0 c 2.216,0 4,-1.784 4,-4 l 0,-37.25 c 0,-2.216 -1.784,-4 -4,-4 l -38,0 z m -4,41.5 0,0.5 c 0,2.216 1.784,4 4,4 l 38,0 c 2.216,0 4,-1.784 4,-4 l 0,-0.5 c 0,2.216 -1.784,4 -4,4 l -38,0 c -2.216,0 -4,-1.784 -4,-4 z" opacity="0.02"/>
   <path d="m 1,1047.6122 0,0.25 c 0,2.216 1.784,4 4,4 l 38,0 c 2.216,0 4,-1.784 4,-4 l 0,-0.25 c 0,2.216 -1.784,4 -4,4 l -38,0 c -2.216,0 -4,-1.784 -4,-4 z" opacity="0.05"/>
   <rect width="46" height="46" x="1" y="1005.61" rx="4" opacity="0.1"/>
  </g>
 </g>
 <g>
  <g transform="translate(0,-1004.3622)">
   <rect rx="4" y="1005.36" x="1" height="46" width="46" fill="#d8404d"/>
  </g>
 </g>
 <g>
  <rect transform="scale(1,-1)" width="46" height="46" x="1" y="-46.998" rx="4" opacity="0.1" fill="url(#1)"/>
 </g>
 <g>
  <g clip-path="url(#2)">
   <g opacity="0.1">
    <g>
     <path d="M 21 23 C 21 25.761719 18.761719 28 16 28 C 13.238281 28 11 25.761719 11 23 C 11 20.238281 13.238281 18 16 18 C 18.761719 18 21 20.238281 21 23 Z M 21 23 "/>
     <path d="M 35 21 C 35 25.417969 31.417969 29 27 29 C 22.582031 29 19 25.417969 19 21 C 19 16.582031 22.582031 13 27 13 C 31.417969 13 35 16.582031 35 21 Z M 35 21 "/>
     <path d="M 37 29 C 37 31.761719 34.761719 34 32 34 C 29.238281 34 27 31.761719 27 29 C 27 26.238281 29.238281 24 32 24 C 34.761719 24 37 26.238281 37 29 Z M 37 29 "/>
     <path d="M 23 30 C 23 32.761719 20.761719 35 18 35 C 15.238281 35 13 32.761719 13 30 C 13 27.238281 15.238281 25 18 25 C 20.761719 25 23 27.238281 23 30 Z M 23 30 "/>
     <path d="M 20 24 L 30 24 L 30 33 C 27 35 23 35 20 33 Z M 20 24 "/>
     <path d="M 21 23.5 C 21 24.882812 19.882812 26 18.5 26 C 17.121094 26 16 24.882812 16 23.5 C 16 22.121094 17.121094 21 18.5 21 C 19.882812 21 21 22.121094 21 23.5 Z M 21 23.5 "/>
     <path d="M 31 23.5 C 31 24.882812 29.882812 26 28.5 26 C 27.121094 26 26 24.882812 26 23.5 C 26 22.121094 27.121094 21 28.5 21 C 29.882812 21 31 22.121094 31 23.5 Z M 31 23.5 "/>
     <path d="M 21.5 27 L 26.5 27 C 26.5 33 21.5 33 21.5 27 Z M 21.5 27 "/>
     <path d="M 19.5 24 C 19.5 24.554688 19.054688 25 18.5 25 C 17.949219 25 17.5 24.554688 17.5 24 C 17.5 23.449219 17.949219 23 18.5 23 C 19.054688 23 19.5 23.449219 19.5 24 Z M 19.5 24 "/>
     <path d="M 29.5 24 C 29.5 24.554688 29.054688 25 28.5 25 C 27.949219 25 27.5 24.554688 27.5 24 C 27.5 23.449219 27.949219 23 28.5 23 C 29.054688 23 29.5 23.449219 29.5 24 Z M 29.5 24 "/>
    </g>
   </g>
  </g>
 </g>
 <g>
  <g clip-path="url(#3)">
   <g transform="translate(0,-1)">
    <g>
     <path d="M 21 23 C 21 25.761719 18.761719 28 16 28 C 13.238281 28 11 25.761719 11 23 C 11 20.238281 13.238281 18 16 18 C 18.761719 18 21 20.238281 21 23 Z M 21 23 " fill="#f4e6d6"/>
     <path d="M 35 21 C 35 25.417969 31.417969 29 27 29 C 22.582031 29 19 25.417969 19 21 C 19 16.582031 22.582031 13 27 13 C 31.417969 13 35 16.582031 35 21 Z M 35 21 " fill="#f4e6d6"/>
     <path d="M 37 29 C 37 31.761719 34.761719 34 32 34 C 29.238281 34 27 31.761719 27 29 C 27 26.238281 29.238281 24 32 24 C 34.761719 24 37 26.238281 37 29 Z M 37 29 " fill="#f4e6d6"/>
     <path d="M 23 30 C 23 32.761719 20.761719 35 18 35 C 15.238281 35 13 32.761719 13 30 C 13 27.238281 15.238281 25 18 25 C 20.761719 25 23 27.238281 23 30 Z M 23 30 " fill="#f4e6d6"/>
     <path d="M 20 24 L 30 24 L 30 33 C 27 35 23 35 20 33 Z M 20 24 " fill="#f4e6d6"/>
     <path d="M 21 23.5 C 21 24.882812 19.882812 26 18.5 26 C 17.121094 26 16 24.882812 16 23.5 C 16 22.121094 17.121094 21 18.5 21 C 19.882812 21 21 22.121094 21 23.5 Z M 21 23.5 " fill="#2d2d2d"/>
     <path d="M 31 23.5 C 31 24.882812 29.882812 26 28.5 26 C 27.121094 26 26 24.882812 26 23.5 C 26 22.121094 27.121094 21 28.5 21 C 29.882812 21 31 22.121094 31 23.5 Z M 31 23.5 " fill="#2d2d2d"/>
     <path d="M 21.5 27 L 26.5 27 C 26.5 33 21.5 33 21.5 27 Z M 21.5 27 " fill="#e5053f"/>
     <path d="M 19.5 24 C 19.5 24.554688 19.054688 25 18.5 25 C 17.949219 25 17.5 24.554688 17.5 24 C 17.5 23.449219 17.949219 23 18.5 23 C 19.054688 23 19.5 23.449219 19.5 24 Z M 19.5 24 " fill="#f9f9f9"/>
     <path d="M 29.5 24 C 29.5 24.554688 29.054688 25 28.5 25 C 27.949219 25 27.5 24.554688 27.5 24 C 27.5 23.449219 27.949219 23 28.5 23 C 29.054688 23 29.5 23.449219 29.5 24 Z M 29.5 24 " fill="#f9f9f9"/>
    </g>
   </g>
  </g>
 </g>
 <g>
  <g transform="translate(0,-1004.3622)">
   <path d="m 1,1043.3622 0,4 c 0,2.216 1.784,4 4,4 l 38,0 c 2.216,0 4,-1.784 4,-4 l 0,-4 c 0,2.216 -1.784,4 -4,4 l -38,0 c -2.216,0 -4,-1.784 -4,-4 z" opacity="0.1"/>
  </g>
 </g>
</svg>

<svg viewBox="0 0 48 48"><defs><linearGradient id="linearGradient3764" x1="1" x2="47" gradientUnits="userSpaceOnUse" gradientTransform="translate(-48.000001,0.00221467)"><stop stop-color="#d52f3f" stop-opacity="1"/><stop offset="1" stop-color="#d8404d" stop-opacity="1"/></linearGradient><clipPath id="clipPath-403831472"><g transform="translate(0,-1004.3622)"><rect rx="4" y="1005.36" x="1" height="46" width="46" fill="#1890d0"/></g></clipPath><clipPath id="clipPath-416735910"><g transform="translate(0,-1004.3622)"><rect rx="4" y="1005.36" x="1" height="46" width="46" fill="#1890d0"/></g></clipPath></defs><g><path d="m 1 43 l 0 0.25 c 0 2.216 1.784 4 4 4 l 38 0 c 2.216 0 4 -1.784 4 -4 l 0 -0.25 c 0 2.216 -1.784 4 -4 4 l -38 0 c -2.216 0 -4 -1.784 -4 -4 z m 0 0.5 l 0 0.5 c 0 2.216 1.784 4 4 4 l 38 0 c 2.216 0 4 -1.784 4 -4 l 0 -0.5 c 0 2.216 -1.784 4 -4 4 l -38 0 c -2.216 0 -4 -1.784 -4 -4 z" opacity="0.02"/><path d="m 1 43.25 l 0 0.25 c 0 2.216 1.784 4 4 4 l 38 0 c 2.216 0 4 -1.784 4 -4 l 0 -0.25 c 0 2.216 -1.784 4 -4 4 l -38 0 c -2.216 0 -4 -1.784 -4 -4 z" opacity="0.05"/><path d="m 1 43 l 0 0.25 c 0 2.216 1.784 4 4 4 l 38 0 c 2.216 0 4 -1.784 4 -4 l 0 -0.25 c 0 2.216 -1.784 4 -4 4 l -38 0 c -2.216 0 -4 -1.784 -4 -4 z" opacity="0.1"/></g><g><rect width="46" height="46" x="-47" y="1" rx="4" transform="matrix(0,-1,1,0,0,0)" fill="url(#linearGradient3764)" fill-opacity="1"/></g><g><g clip-path="url(#clipPath-403831472)"><g opacity="0.1"><!-- color: #d8404d --><g><path d="m 21 23 c 0 2.762 -2.238 5 -5 5 c -2.762 0 -5 -2.238 -5 -5 c 0 -2.762 2.238 -5 5 -5 c 2.762 0 5 2.238 5 5 m 0 0" fill="#000"/><path d="m 35 21 c 0 4.418 -3.582 8 -8 8 c -4.418 0 -8 -3.582 -8 -8 c 0 -4.418 3.582 -8 8 -8 c 4.418 0 8 3.582 8 8 m 0 0" fill="#000"/><path d="m 37 29 c 0 2.762 -2.238 5 -5 5 c -2.762 0 -5 -2.238 -5 -5 c 0 -2.762 2.238 -5 5 -5 c 2.762 0 5 2.238 5 5 m 0 0" fill="#000"/><path d="m 23 30 c 0 2.762 -2.238 5 -5 5 c -2.762 0 -5 -2.238 -5 -5 c 0 -2.762 2.238 -5 5 -5 c 2.762 0 5 2.238 5 5 m 0 0" fill="#000"/><path d="m 20 24 l 10 0 l 0 9 c -3 2 -7 2 -10 0 m 0 -9" fill="#000"/><path d="m 21 23.5 c 0 1.383 -1.117 2.5 -2.5 2.5 c -1.379 0 -2.5 -1.117 -2.5 -2.5 c 0 -1.379 1.121 -2.5 2.5 -2.5 c 1.383 0 2.5 1.121 2.5 2.5 m 0 0" fill="#000"/><path d="m 31 23.5 c 0 1.383 -1.117 2.5 -2.5 2.5 c -1.379 0 -2.5 -1.117 -2.5 -2.5 c 0 -1.379 1.121 -2.5 2.5 -2.5 c 1.383 0 2.5 1.121 2.5 2.5 m 0 0" fill="#000"/><path d="m 21.5 27 l 5 0 c 0 6 -5 6 -5 0 m 0 0" fill="#000"/><path d="m 19.5 24 c 0 0.555 -0.445 1 -1 1 c -0.551 0 -1 -0.445 -1 -1 c 0 -0.551 0.449 -1 1 -1 c 0.555 0 1 0.449 1 1 m 0 0" fill="#000"/><path d="m 29.5 24 c 0 0.555 -0.445 1 -1 1 c -0.551 0 -1 -0.445 -1 -1 c 0 -0.551 0.449 -1 1 -1 c 0.555 0 1 0.449 1 1 m 0 0" fill="#000"/></g></g></g></g><g><g clip-path="url(#clipPath-416735910)"><g transform="translate(0,-1)"><!-- color: #d8404d --><g><path d="m 21 23 c 0 2.762 -2.238 5 -5 5 c -2.762 0 -5 -2.238 -5 -5 c 0 -2.762 2.238 -5 5 -5 c 2.762 0 5 2.238 5 5 m 0 0" fill="#f4e6d6"/><path d="m 35 21 c 0 4.418 -3.582 8 -8 8 c -4.418 0 -8 -3.582 -8 -8 c 0 -4.418 3.582 -8 8 -8 c 4.418 0 8 3.582 8 8 m 0 0" fill="#f4e6d6"/><path d="m 37 29 c 0 2.762 -2.238 5 -5 5 c -2.762 0 -5 -2.238 -5 -5 c 0 -2.762 2.238 -5 5 -5 c 2.762 0 5 2.238 5 5 m 0 0" fill="#f4e6d6"/><path d="m 23 30 c 0 2.762 -2.238 5 -5 5 c -2.762 0 -5 -2.238 -5 -5 c 0 -2.762 2.238 -5 5 -5 c 2.762 0 5 2.238 5 5 m 0 0" fill="#f4e6d6"/><path d="m 20 24 l 10 0 l 0 9 c -3 2 -7 2 -10 0 m 0 -9" fill="#f4e6d6"/><path d="m 21 23.5 c 0 1.383 -1.117 2.5 -2.5 2.5 c -1.379 0 -2.5 -1.117 -2.5 -2.5 c 0 -1.379 1.121 -2.5 2.5 -2.5 c 1.383 0 2.5 1.121 2.5 2.5 m 0 0" fill="#2d2d2d"/><path d="m 31 23.5 c 0 1.383 -1.117 2.5 -2.5 2.5 c -1.379 0 -2.5 -1.117 -2.5 -2.5 c 0 -1.379 1.121 -2.5 2.5 -2.5 c 1.383 0 2.5 1.121 2.5 2.5 m 0 0" fill="#2d2d2d"/><path d="m 21.5 27 l 5 0 c 0 6 -5 6 -5 0 m 0 0" fill="#e5053f"/><path d="m 19.5 24 c 0 0.555 -0.445 1 -1 1 c -0.551 0 -1 -0.445 -1 -1 c 0 -0.551 0.449 -1 1 -1 c 0.555 0 1 0.449 1 1 m 0 0" fill="#f9f9f9"/><path d="m 29.5 24 c 0 0.555 -0.445 1 -1 1 c -0.551 0 -1 -0.445 -1 -1 c 0 -0.551 0.449 -1 1 -1 c 0.555 0 1 0.449 1 1 m 0 0" fill="#f9f9f9"/></g></g></g></g><g><g transform="translate(0,-1004.3622)"><path d="m 1 1043.36 0 4 c 0 2.216 1.784 4 4 4 l 38 0 c 2.216 0 4 -1.784 4 -4 l 0 -4 c 0 2.216 -1.784 4 -4 4 l -38 0 c -2.216 0 -4 -1.784 -4 -4 z" opacity="0.1"/></g></g></svg>
